svgs/solid/distribute-spacing-horizontal.svg

<svg xmlns="http://www.w3.org/2000/svg" viewBox="0 0 448 512"><!--! Font Awesome Pro 6.2.0 by @fontawesome - https://fontawesome.com License - https://fontawesome.com/license (Commercial License) Copyright 2022 Fonticons, Inc. --><path d="M0 24C0 10.7 10.7 0 24 0S48 10.7 48 24V488c0 13.3-10.7 24-24 24s-24-10.7-24-24V24zM128 144c0-26.5 21.5-48 48-48h96c26.5 0 48 21.5 48 48V368c0 26.5-21.5 48-48 48H176c-26.5 0-48-21.5-48-48V144zM424 0c13.3 0 24 10.7 24 24V488c0 13.3-10.7 24-24 24s-24-10.7-24-24V24c0-13.3 10.7-24 24-24z"/></svg>

<svg xmlns="http://www.w3.org/2000/svg" viewBox="0 0 448 512"><!--! Font Awesome Pro 6.1.2 by @fontawesome - https://fontawesome.com License - https://fontawesome.com/license (Commercial License) Copyright 2022 Fonticons, Inc. --><path d="M0 24C0 10.75 10.75 0 24 0C37.25 0 48 10.75 48 24V488C48 501.3 37.25 512 24 512C10.75 512 0 501.3 0 488V24zM128 144C128 117.5 149.5 96 176 96H272C298.5 96 320 117.5 320 144V368C320 394.5 298.5 416 272 416H176C149.5 416 128 394.5 128 368V144zM448 24V488C448 501.3 437.3 512 424 512C410.7 512 400 501.3 400 488V24C400 10.75 410.7 0 424 0C437.3 0 448 10.75 448 24z"/></svg>
